assets/html-icon.svg

<svg width="24" height="24" viewBox="0 0 24 24" fill="none" xmlns="http://www.w3.org/2000/svg">
<path d="M12 23.4998C11.7 23.4998 11.3 23.3998 11 23.1998L6.4 20.4998C5.9 20.1998 5.5 19.6998 5.5 19.0998L4 9.0998C4 8.4998 4.1 7.9998 4.5 7.4998C4.9 7.0998 5.4 6.7998 6 6.7998H18.1C18.7 6.7998 19.2 6.9998 19.5 7.4998C19.9 7.9998 20 8.4998 20 9.0998L18.6 19.1998C18.5 19.7998 18.2 20.2998 17.7 20.5998L13 23.1998C12.7 23.3998 12.3 23.4998 12 23.4998ZM5.9 7.8998C5.7 7.8998 5.4 7.9998 5.2 8.1998C5.1 8.3998 5 8.6998 5 8.8998L6.4 18.9998C6.4 19.2998 6.6 19.4998 6.9 19.6998L11.5 22.3998C11.8 22.5998 12.1 22.5998 12.4 22.3998L17 19.6998C17.2 19.5998 17.4 19.2998 17.5 18.9998L19 8.8998C19 8.5998 19 8.3998 18.8 8.1998C18.6 7.9998 18.4 7.8998 18.1 7.8998H5.9V7.8998Z" fill="white"/>
<path d="M8.5 14.6996C8.3 14.6996 8 14.4996 8 14.2996L7.5 10.6996C7.5 10.5996 7.5 10.3996 7.6 10.2996C7.7 10.1996 7.8 10.0996 8 10.0996H16C16.3 10.0996 16.5 10.2996 16.5 10.5996C16.5 10.8996 16.3 11.0996 16 11.0996H8.5L8.9 14.0996C9 14.3996 8.8 14.5996 8.5 14.6996Z" fill="white"/>
<path d="M12.0004 19.5998C11.9004 19.5998 11.8004 19.5998 11.8004 19.4998L8.70039 17.6998C8.60039 17.5998 8.50039 17.4998 8.50039 17.2998L8.40039 16.2998C8.40039 15.9998 8.60039 15.7998 8.80039 15.6998C9.10039 15.6998 9.30039 15.8998 9.40039 16.0998V16.9998L12.0004 18.4998L14.6004 16.9998L15.0004 14.0998C15.0004 13.7998 15.3004 13.5998 15.6004 13.6998C15.9004 13.6998 16.1004 13.9998 16.0004 14.2998L15.6004 17.3998C15.6004 17.5998 15.5004 17.6998 15.4004 17.7998L12.3004 19.5998C12.2004 19.5998 12.1004 19.5998 12.0004 19.5998Z" fill="white"/>
<path d="M15.5 14.7002H8.5C8.2 14.7002 8 14.5002 8 14.2002C8 13.9002 8.2 13.7002 8.5 13.7002H15.6C15.9 13.7002 16.1 13.9002 16.1 14.2002C16.1 14.5002 15.8 14.7002 15.5 14.7002Z" fill="white"/>
<path d="M7.19961 3.7H5.09961C4.79961 3.7 4.59961 3.5 4.59961 3.2V1C4.59961 0.7 4.79961 0.5 5.09961 0.5C5.39961 0.5 5.59961 0.7 5.59961 1V2.7H6.79961V1C6.79961 0.7 6.99961 0.5 7.29961 0.5C7.59961 0.5 7.69961 0.7 7.69961 1V3.2C7.69961 3.5 7.49961 3.7 7.19961 3.7Z" fill="white"/>
<path d="M7.19961 5.9002C6.99961 5.9002 6.69961 5.6002 6.69961 5.4002V3.7002H5.59961V5.4002C5.59961 5.7002 5.39961 5.9002 5.09961 5.9002C4.79961 5.9002 4.59961 5.6002 4.59961 5.4002V3.2002C4.59961 2.9002 4.79961 2.7002 5.09961 2.7002H7.29961C7.59961 2.7002 7.79961 2.9002 7.79961 3.2002V5.4002C7.69961 5.6002 7.49961 5.9002 7.19961 5.9002Z" fill="white"/>
<path d="M10.7996 1.5H8.59961C8.29961 1.5 8.09961 1.3 8.09961 1C8.09961 0.7 8.29961 0.5 8.59961 0.5H10.7996C11.0996 0.5 11.2996 0.7 11.2996 1C11.2996 1.3 11.0996 1.5 10.7996 1.5Z" fill="white"/>
<path d="M9.69922 3.7C9.39922 3.7 9.19922 3.5 9.19922 3.2V1C9.19922 0.7 9.39922 0.5 9.69922 0.5C9.99922 0.5 10.1992 0.7 10.1992 1V3.2C10.1992 3.5 9.99922 3.7 9.69922 3.7Z" fill="white"/>
<path d="M9.69922 5.9002C9.39922 5.9002 9.19922 5.7002 9.19922 5.4002V3.2002C9.19922 2.9002 9.39922 2.7002 9.69922 2.7002C9.99922 2.7002 10.1992 2.9002 10.1992 3.2002V5.4002C10.1992 5.6002 9.99922 5.9002 9.69922 5.9002Z" fill="white"/>
<path d="M16.7988 3.7C16.4988 3.7 16.2988 3.5 16.2988 3.2V1C16.2988 0.7 16.4988 0.5 16.7988 0.5C17.0988 0.5 17.2988 0.7 17.2988 1V3.2C17.2988 3.5 16.9988 3.7 16.7988 3.7Z" fill="white"/>
<path d="M18.8992 5.9002H16.6992C16.3992 5.9002 16.1992 5.7002 16.1992 5.4002V3.2002C16.1992 2.9002 16.3992 2.7002 16.6992 2.7002C16.9992 2.7002 17.1992 2.9002 17.1992 3.2002V4.9002H18.8992C19.1992 4.9002 19.3992 5.1002 19.3992 5.4002C19.3992 5.7002 19.1992 5.9002 18.8992 5.9002Z" fill="white"/>
<path d="M12.0996 3.7C11.7996 3.7 11.5996 3.5 11.5996 3.2V1C11.5996 0.7 11.7996 0.5 12.0996 0.5H16.6996C16.9996 0.5 17.1996 0.7 17.1996 1C17.1996 1.3 16.9996 1.5 16.7996 1.5H12.6996V3.2C12.5996 3.5 12.3996 3.7 12.0996 3.7Z" fill="white"/>
<path d="M12.0996 5.9002C11.7996 5.9002 11.5996 5.7002 11.5996 5.4002V3.2002C11.5996 2.9002 11.7996 2.7002 12.0996 2.7002C12.3996 2.7002 12.5996 2.9002 12.5996 3.2002V5.4002C12.5996 5.6002 12.3996 5.9002 12.0996 5.9002Z" fill="white"/>
<path d="M14.3994 3.7C14.0994 3.7 13.8994 3.5 13.8994 3.2V1C13.8994 0.7 14.0994 0.5 14.3994 0.5C14.6994 0.5 14.8994 0.7 14.8994 1V3.2C14.8994 3.5 14.6994 3.7 14.3994 3.7Z" fill="white"/>
<path d="M14.3994 5.9002C14.0994 5.9002 13.8994 5.7002 13.8994 5.4002V3.2002C13.8994 2.9002 14.0994 2.7002 14.3994 2.7002C14.6994 2.7002 14.8994 2.9002 14.8994 3.2002V5.4002C14.8994 5.6002 14.6994 5.9002 14.3994 5.9002Z" fill="white"/>
</svg>

<svg xmlns="http://www.w3.org/2000/svg" xmlns:xlink="http://www.w3.org/1999/xlink" width="24" height="24" fill="none" xmlns:v="https://vecta.io/nano"><g fill="#fff"><path d="M12 23.5a1.93 1.93 0 0 1-1-.3l-4.6-2.7c-.5-.3-.9-.8-.9-1.4L4 9.1c0-.6.1-1.1.5-1.6.4-.4.9-.7 1.5-.7h12.1c.6 0 1.1.2 1.4.7.4.5.5 1 .5 1.6l-1.4 10.1c-.1.6-.4 1.1-.9 1.4L13 23.2a1.93 1.93 0 0 1-1 .3zM5.9 7.9a1.08 1.08 0 0 0-.7.3c-.1.2-.2.5-.2.7L6.4 19c0 .3.2.5.5.7l4.6 2.7c.3.2.6.2.9 0l4.6-2.7c.2-.1.4-.4.5-.7L19 8.9c0-.3 0-.5-.2-.7s-.4-.3-.7-.3H5.9h0zm2.6 6.8c-.2 0-.5-.2-.5-.4l-.5-3.6c0-.1 0-.3.1-.4s.2-.2.4-.2h8a.47.47 0 0 1 .5.5.47.47 0 0 1-.5.5H8.5l.4 3c.1.3-.1.5-.4.6zm3.5 4.9c-.1 0-.2 0-.2-.1l-3.1-1.8c-.1-.1-.2-.2-.2-.4l-.1-1c0-.3.2-.5.4-.6.3 0 .5.2.6.4v.9l2.6 1.5 2.6-1.5.4-2.9c0-.3.3-.5.6-.4.3 0 .5.3.4.6l-.4 3.1c0 .2-.1.3-.2.4l-3.1 1.8H12z"/><path d="M15.5 14.7h-7a.47.47 0 0 1-.5-.5.47.47 0 0 1 .5-.5h7.1a.47.47 0 0 1 .5.5c0 .3-.3.5-.6.5zm-8.3-11H5.1a.47.47 0 0 1-.5-.5V1a.47.47 0 0 1 .5-.5.47.47 0 0 1 .5.5v1.7h1.2V1a.47.47 0 0 1 .5-.5c.3 0 .4.2.4.5v2.2a.47.47 0 0 1-.5.5z"/><path d="M7.2 5.9c-.2 0-.5-.3-.5-.5V3.7H5.6v1.7a.47.47 0 0 1-.5.5c-.3 0-.5-.3-.5-.5V3.2a.47.47 0 0 1 .5-.5h2.2a.47.47 0 0 1 .5.5v2.2c-.1.2-.3.5-.6.5zm3.6-4.4H8.6a.47.47 0 0 1-.5-.5.47.47 0 0 1 .5-.5h2.2a.47.47 0 0 1 .5.5.47.47 0 0 1-.5.5z"/><path d="M9.699 3.7a.47.47 0 0 1-.5-.5V1a.47.47 0 0 1 .5-.5.47.47 0 0 1 .5.5v2.2a.47.47 0 0 1-.5.5z"/><use xlink:href="#B"/><path d="M16.799 3.7a.47.47 0 0 1-.5-.5V1a.47.47 0 0 1 .5-.5.47.47 0 0 1 .5.5v2.2c0 .3-.3.5-.5.5z"/><path d="M18.899 5.9h-2.2a.47.47 0 0 1-.5-.5V3.2a.47.47 0 0 1 .5-.5.47.47 0 0 1 .5.5v1.7h1.7a.47.47 0 0 1 .5.5.47.47 0 0 1-.5.5zM12.1 3.7a.47.47 0 0 1-.5-.5V1a.47.47 0 0 1 .5-.5h4.6a.47.47 0 0 1 .5.5c0 .3-.2.5-.4.5h-4.1v1.7c-.1.3-.3.5-.6.5z"/><use xlink:href="#B" x="2.401"/><path d="M14.399 3.7a.47.47 0 0 1-.5-.5V1a.47.47 0 0 1 .5-.5.47.47 0 0 1 .5.5v2.2a.47.47 0 0 1-.5.5z"/><use xlink:href="#B" x="4.7"/></g><defs ><path id="B" d="M9.699 5.9a.47.47 0 0 1-.5-.5V3.2a.47.47 0 0 1 .5-.5.47.47 0 0 1 .5.5v2.2c0 .2-.2.5-.5.5z"/></defs></svg>
